X: 39522
T: Taureen Derby
R: polka
M: 2/4
K: Adorian
|:eA BA|eA BA|G>A Bd|GA Bd|
eA BA|eA BA|G>A Bd|BA A2:|
a2 ge|a2 ge|dB gB|de fg|
a2 ge|a2 ge|dB gB|BA A2|
a2 ge|a2 ge|dB gB|d/c/d/e/ fg|
a2 ge|a2 ge|dB gB|BA A2||

